X:2535
T:Cantar de Ronda (CT 013)
R:Ronda
C:Tradicional
S:Música Tradicional Asturiana, (C) Tello & Tito. Asturies, 2001.
S:http://pagina.de/MusTradAst <telloytito@asturies.org>
N:Variante de CT 012, transcrita en Cenera, ayuntamiento de Mieres.
O:Cenera (Mieres)
A:Asturies
Z:Cancioneru de Torner 013
M:2/4
L:1/8
Q:1/4=112
W:Todos los vientos de Abril (bis)
W:y las escarchas de Enero (bis)
W:no bastan para olvidar
W:un amor tan verdadero.
K:G
G/2G/2|Ad cd|c(c- c/2B/4A/4) G/2G/2|Ad cd|
cc- c/2z/2 A/2A/2|AB {A}cB|({G}A/2B/4A/4)G- G/2z/2 G/2G/2|Ad cd|
c(c- c/2B/4A/4) G/2G/2|A/2 z/2 d cd|c-c2 A/2G/2|AB {A}cB|({G}A/2B/4A/4)G- G||


